X:1
Q:1/2=100
T: Arbor and Bella
C: David Kimdon
M:2/2
L:1/8
K:Bm
|:"Bm"Bc2B dB f2|Be2Bd2c2|"G"Bd2e fgf2|d2B2 Bcde|
"D"fdefa2g2|ff2f fed2|"A"e2e2edcA|"Bm"B8:|
|:"G"gf2g gfed|"A7"ecea- ag2f|"D"f2ef edcd|"Bm"B2 B2c2d2|
"Em"ed2e- eedc|"G"BA2B- BGAB|"A"c2c2edcA|"Bm"B8:|

